X: 10003
T: Devlin's
R: jig
M: 6/8
K: Bminor
|:c|"Bm"d2B BcB|FBB B2c|"G"~d3 Bed|"A"c/d/cA ABc|
"G"d3 "A"ede|"Bm"f2b afe|"G"dcB "A"AFE|"Bm"FBB B2:|
|:a|"D"a^ga ~f3|"A"ecA A2F|EFA cBA|"F#"cde f2e|
"Bm"d2B BcB|FBB Bcd|"G"efg "A"f/g/fe|"Bm"dBB B2:|

